X:1
T:Title
%%score ( 1 2 ) { 3 | 4 }
L:1/8
Q:1/4=103
M:4/4
K:F
V:1 treble nm="Grand Piano, Soprano"
V:2 treble 
V:3 treble nm="Choir Pad, And He Came to Bethany"
V:4 bass 
V:1
 [Ac]>[GB] [FA]2 [FA]2 [FA]2 | [FG]F [FB]2 [FB]2 [FB]2 | [FB][FB] [FA]2- [FA][FA][FG][FG] | %3
w: By~James~McGranahan * * * *|||
 F2 [EG]6 | [Ec]>[GB] [FA]2 [FA]2 [FA]2 | [FG]F [FB]2 [FB]2 [FB]2 | %6
w: |||
 [Fd][Fd] [Fc]2- [Fc][Fc][Ec][EB] | [EG]2 F6 | [Fc][Fc][Fd][Fd] [Fd][Fd] [Fd]2 | %9
w: |||
 [Ff][Fd] [Fc]2- [Fc][FA] F2 | [FA][FA] [EG]2- [EG][EG][Ec][Ec] | [GB]2 [FA]4 [Ac]2 | %12
w: |||
 [Fc][Fc] [Fd]2 [Fd]2 [Fd]2 | [Ff][Fd] [Fc]2- [Fc][FA] F2 | [FA][FA] [EG]2- [EG][FA][EG][DF] | %15
w: |||
 [CE][=B,D] C6 | C2 [FA]2 [FA]2 [FA][FG] | z2 B6 | [FB]2 [FA]2 [FA]2 [FA][FG] | z2 G6 | %20
w: |||||
 [Ec]>[GB] [FA]2 [FA]2 [FA]2 | [FG]F [FB]2 [Fc]2 [Fd]2 | [Ff][Fd] [Fc]2- [Fc][Fc][Ec][EB] | %23
w: |||
 [EG]2 F6- | F2 z2 z4 |] %25
w: ||
V:2
 x8 | x8 | x8 | x8 | x8 | x8 | x8 | x8 | x8 | x8 | x8 | x8 | x8 | x8 | x8 | x8 | x8 | F2 FF F2 F2 | %18
 x8 | F2 EE E2 E2 | x8 | x8 | x8 | x8 | x8 |] %25
V:3
 C>C C2 C2 C2 | B,A, D2 D2 D2 | DD C2- CCCB, | A,2 C6 | C>C C2 C2 C2 | B,A, D2 D2 D2 | %6
 B,B, A,2- A,A,G,G, | B,2 A,6 | A,A,B,B, B,B, B,2 | DB, A,2- A,[K:treble]C A,2 | CC C2- CCCC | %11
 C2 C4[K:bass] A,2 | A,A, B,2 B,2 B,2 | DB, A,2- A,[K:treble]C A,2 | CC C2- CCC[K:bass]G, | %15
 G,F, E,6 | G,2 F,2[K:treble] C2 CB, | A,2 D6 | D2 C2 C2 CB, | A,2 C6 | C>C C2 C2 C2 | %21
 CC[K:bass] B,2 A,2 B,2 | DB, A,2- A,A,G,G, | B,2 A,6- | A,2 z2 z4 |] %25
V:4
 F,>F, F,2 F,2 F,2 | F,F, B,,2 B,,2 B,,2 | B,,B,, F,2- F,F,F,F, | F,2 C,6 | C,>C, F,2 F,2 F,2 | %5
 F,F, B,,2 B,,2 B,,2 | B,,B,, C,2- C,C,C,C, | C,2 F,6 | F,F,B,,B,, B,,B,, B,,2 | %9
 B,,B,, F,2- F,F, F,2 | F,F, C,2- C,C,C,C, | C,2 F,6 | F,F, B,,2 B,,2 B,,2 | B,,B,, F,2- F,F, F,2 | %14
 F,F, G,2- G,G, .G,2 | G,,2 C,6 | E,2 z2 F,2 F,F, | F,2 F,F, F,2 F,2 | F,2 F,2 F,2 F,F, | %19
 F,2 C,C, C,2 C,2 | C,>C, F,2 F,2 F,2 | _E,E, D,2 C,2 B,,2 | B,,B,, C,2- C,C,C,C, | C,2 F,6- | %24
 F,2 z2 z4 |] %25

